svg/SJJB-OpenStreetMapIcons/place_of_worship/jewish3.svg

<?xml version="1.0" encoding="UTF-8" standalone="no"?>
<!-- Created with Inkscape (http://www.inkscape.org/) -->
<svg
   xmlns:dc="http://purl.org/dc/elements/1.1/"
   xmlns:cc="http://creativecommons.org/ns#"
   xmlns:rdf="http://www.w3.org/1999/02/22-rdf-syntax-ns#"
   xmlns:svg="http://www.w3.org/2000/svg"
   xmlns="http://www.w3.org/2000/svg"
   xmlns:sodipodi="http://sodipodi.sourceforge.net/DTD/sodipodi-0.dtd"
   xmlns:inkscape="http://www.inkscape.org/namespaces/inkscape"
   version="1.0"
   width="580"
   height="580"
   id="svg2"
   sodipodi:version="0.32"
   inkscape:version="0.46"
   sodipodi:docname="place_of_worship_jewish3.svg"
   sodipodi:docbase="s:\Data\FacilityIcons"
   inkscape:output_extension="org.inkscape.output.svg.inkscape">
  <metadata
     id="metadata2975">
    <rdf:RDF>
      <cc:Work
         rdf:about="">
        <dc:format>image/svg+xml</dc:format>
        <dc:type
           rdf:resource="http://purl.org/dc/dcmitype/StillImage" />
        <cc:license
           rdf:resource="http://web.resource.org/cc/PublicDomain" />
        <dc:language>en</dc:language>
      </cc:Work>
    </rdf:RDF>
  </metadata>
  <sodipodi:namedview
     inkscape:window-height="1003"
     inkscape:window-width="1400"
     inkscape:pageshadow="2"
     inkscape:pageopacity="0.0"
     guidetolerance="10.0"
     gridtolerance="10.0"
     objecttolerance="10.0"
     borderopacity="1.0"
     bordercolor="#666666"
     pagecolor="#ffffff"
     id="base"
     inkscape:zoom="0.65172414"
     inkscape:cx="-57.954519"
     inkscape:cy="172.10413"
     inkscape:window-x="0"
     inkscape:window-y="20"
     inkscape:current-layer="svg2"
     showgrid="false" />
  <defs
     id="defs4">
    <inkscape:perspective
       sodipodi:type="inkscape:persp3d"
       inkscape:vp_x="0 : 290 : 1"
       inkscape:vp_y="0 : 1000 : 0"
       inkscape:vp_z="580 : 290 : 1"
       inkscape:persp3d-origin="290 : 193.33333 : 1"
       id="perspective2441" />
    <inkscape:perspective
       id="perspective2466"
       inkscape:persp3d-origin="372.04724 : 350.78739 : 1"
       inkscape:vp_z="744.09448 : 526.18109 : 1"
       inkscape:vp_y="0 : 1000 : 0"
       inkscape:vp_x="0 : 526.18109 : 1"
       sodipodi:type="inkscape:persp3d" />
    <inkscape:perspective
       id="perspective3333"
       inkscape:persp3d-origin="372.04724 : 350.78739 : 1"
       inkscape:vp_z="744.09448 : 526.18109 : 1"
       inkscape:vp_y="0 : 1000 : 0"
       inkscape:vp_x="0 : 526.18109 : 1"
       sodipodi:type="inkscape:persp3d" />
    <inkscape:perspective
       id="perspective3401"
       inkscape:persp3d-origin="372.04724 : 350.78739 : 1"
       inkscape:vp_z="744.09448 : 526.18109 : 1"
       inkscape:vp_y="0 : 1000 : 0"
       inkscape:vp_x="0 : 526.18109 : 1"
       sodipodi:type="inkscape:persp3d" />
    <inkscape:perspective
       id="perspective3464"
       inkscape:persp3d-origin="372.04724 : 350.78739 : 1"
       inkscape:vp_z="744.09448 : 526.18109 : 1"
       inkscape:vp_y="0 : 1000 : 0"
       inkscape:vp_x="0 : 526.18109 : 1"
       sodipodi:type="inkscape:persp3d" />
    <inkscape:perspective
       id="perspective3581"
       inkscape:persp3d-origin="225 : 150 : 1"
       inkscape:vp_z="450 : 225 : 1"
       inkscape:vp_y="0 : 1000 : 0"
       inkscape:vp_x="0 : 225 : 1"
       sodipodi:type="inkscape:persp3d" />
    <inkscape:perspective
       id="perspective4312"
       inkscape:persp3d-origin="225 : 150 : 1"
       inkscape:vp_z="450 : 225 : 1"
       inkscape:vp_y="0 : 1000 : 0"
       inkscape:vp_x="0 : 225 : 1"
       sodipodi:type="inkscape:persp3d" />
  </defs>
  <g
     id="g1327">
    <path
       d="M 66.275,1.768 C 24.94,1.768 1.704,23.139 1.704,66.804 L 1.704,516.927 C 1.704,557.771 22.599,579.156 63.896,579.156 L 515.92,579.156 C 557.227,579.156 578.149,558.841 578.149,516.927 L 578.149,66.804 C 578.149,24.203 557.227,1.768 514.628,1.768 C 514.624,1.768 66.133,1.625 66.275,1.768 z "
       style="fill:#111;stroke:#eee;stroke-width:3.40799999"
       id="path1329" />
  </g>
  <path
     sodipodi:nodetypes="cccssssscccscccscccscccsccssssccscccccccccccccssccccsccccccccccsccccccsccsssc"
     id="path3648"
     d="M 269.17679,505.89453 L 232.68506,442.57991 L 160.88864,442.54701 C 116.14487,442.52656 88.177453,441.0341 86.664503,438.58608 C 85.329252,436.42559 100.11174,407.05803 119.51449,373.32477 C 143.57391,331.49552 153.97416,309.84139 152.21984,305.22979 C 150.80501,301.51078 135.05626,273.24886 117.2225,242.42558 C 99.388807,211.60226 84.797585,184.37751 84.797585,181.92617 C 84.797585,178.69882 105.19824,177.46769 158.74133,177.46392 L 232.68506,177.45874 L 269.07544,114.08358 C 289.09016,79.227243 306.69013,50.708419 308.18651,50.708419 C 312.29049,50.708419 322.53758,66.600628 355.86458,124.65216 L 386.18646,177.4691 L 460.20413,177.4691 C 516.94707,177.4691 534.18259,178.5897 534.0538,182.27066 C 533.96137,184.91149 517.82775,214.6756 498.20127,248.41311 L 462.51679,309.754 L 498.36927,371.86562 C 518.08818,406.02698 534.2218,435.89802 534.2218,438.24568 C 534.2218,441.22852 511.92762,442.5142 460.20413,442.5142 L 386.18646,442.5142 L 355.86458,495.33114 C 322.70115,553.09779 312.27682,569.29208 308.28786,569.24209 C 306.8472,569.22398 289.24722,540.71756 269.17679,505.89453 z M 322.6721,467.97492 C 329.16519,456.62618 334.47773,446.25486 334.47773,444.92751 C 334.47773,443.60018 323.24213,442.5142 309.50972,442.5142 C 295.7773,442.5142 284.54171,443.60018 284.54171,444.92751 C 284.54171,448.05121 307.72422,488.60899 309.50972,488.60899 C 310.25594,488.60899 316.17903,479.32365 322.6721,467.97492 z M 195.38362,377.25881 C 188.43459,364.60778 181.88475,354.25698 180.82839,354.25698 C 179.77205,354.25698 173.22223,364.60778 166.2732,377.25881 L 153.63862,400.26062 L 180.82839,400.26062 L 208.01817,400.26062 L 195.38362,377.25881 z M 376.09783,374.3323 C 384.38653,360.0717 396.049,339.60474 402.01448,328.85015 L 412.86073,309.2963 L 387.97708,265.4698 L 363.09346,221.64329 L 309.68071,221.64329 L 256.26799,221.64329 L 231.99252,263.44633 C 218.641,286.438 207.71703,307.07063 207.71703,309.29655 C 207.71703,313.27678 247.54331,386.07829 254.85253,395.45909 C 257.5127,398.87317 273.39326,400.26062 309.8106,400.26062 L 361.02749,400.26062 L 376.09783,374.3323 z M 452.74619,377.25881 C 445.79716,364.60778 439.24734,354.25698 438.191,354.25698 C 437.13464,354.25698 430.5848,364.60778 423.63576,377.25881 L 411.00125,400.26062 L 438.191,400.26062 L 465.38077,400.26062 L 452.74619,377.25881 z M 195.13062,242.70616 L 207.51222,219.72267 L 180.57543,219.72267 L 153.63862,219.72267 L 166.2732,242.72451 C 173.22223,255.37551 179.77205,265.71805 180.82839,265.70794 C 181.88475,265.69785 188.32073,255.34704 195.13062,242.70616 z M 452.49319,242.70616 L 464.87481,219.72267 L 437.93801,219.72267 L 411.00125,219.72267 L 423.63576,242.72451 C 430.5848,255.37551 437.13464,265.71805 438.191,265.70794 C 439.24734,265.69785 445.6833,255.34704 452.49319,242.70616 z M 334.47773,175.05578 C 334.47773,171.9321 311.2952,131.37432 309.50972,131.37432 C 307.72422,131.37432 284.54171,171.9321 284.54171,175.05578 C 284.54171,176.38311 295.7773,177.4691 309.50972,177.4691 C 323.24213,177.4691 334.47773,176.38311 334.47773,175.05578 z"
     style="opacity:0.25;fill:#ffffff;fill-opacity:1" />
  <path
     style="fill:#ffffff;fill-opacity:1"
     d="M 230.15739,466.87513 L 193.66566,403.56051 L 121.86924,403.52762 C 77.125476,403.50716 49.158054,402.0147 47.645104,399.56668 C 46.309853,397.40619 61.092344,368.03863 80.495093,334.30537 C 104.55451,292.47612 114.95476,270.82199 113.20044,266.21039 C 111.78562,262.49138 96.03686,234.22946 78.203107,203.40618 C 60.369408,172.58286 45.778186,145.35811 45.778186,142.90677 C 45.778186,139.67942 66.178844,138.44829 119.72193,138.44452 L 193.66566,138.43934 L 230.05604,75.064175 C 250.07076,40.207843 267.67073,11.68902 269.16711,11.68902 C 273.27109,11.68902 283.51819,27.581229 316.84518,85.632758 L 347.16706,138.4497 L 421.18473,138.4497 C 477.92767,138.4497 495.16319,139.5703 495.0344,143.25126 C 494.94197,145.89209 478.80836,175.6562 459.18187,209.39371 L 423.49739,270.7346 L 459.34987,332.84622 C 479.06878,367.00758 495.2024,396.87862 495.2024,399.22628 C 495.2024,402.20912 472.90822,403.4948 421.18473,403.4948 L 347.16706,403.4948 L 316.84518,456.31174 C 283.68175,514.07839 273.25742,530.27268 269.26846,530.22269 C 267.8278,530.20458 250.22782,501.69816 230.15739,466.87513 z M 283.6527,428.95552 C 290.1458,417.60678 295.45834,407.23546 295.45834,405.90811 C 295.45834,404.58078 284.22273,403.4948 270.49032,403.4948 C 256.7579,403.4948 245.52231,404.58078 245.52231,405.90811 C 245.52231,409.03181 268.70482,449.58959 270.49032,449.58959 C 271.23654,449.58959 277.15963,440.30425 283.6527,428.95552 z M 156.36423,338.23941 C 149.41519,325.58839 142.86535,315.23758 141.80899,315.23758 C 140.75265,315.23758 134.20283,325.58839 127.2538,338.23941 L 114.61922,361.24122 L 141.80899,361.24122 L 168.99878,361.24122 L 156.36423,338.23941 z M 337.07843,335.3129 C 345.36713,321.0523 357.0296,300.58534 362.99508,289.83075 L 373.84133,270.2769 L 348.95768,226.4504 L 324.07406,182.62389 L 270.66131,182.62389 L 217.24859,182.62389 L 192.97312,224.42694 C 179.6216,247.4186 168.69763,268.05123 168.69763,270.27715 C 168.69763,274.25738 208.52391,347.05889 215.83314,356.43969 C 218.4933,359.85377 234.37386,361.24122 270.7912,361.24122 L 322.00809,361.24122 L 337.07843,335.3129 z M 413.72679,338.23941 C 406.77776,325.58839 400.22794,315.23758 399.1716,315.23758 C 398.11524,315.23758 391.5654,325.58839 384.61637,338.23941 L 371.98185,361.24122 L 399.1716,361.24122 L 426.36137,361.24122 L 413.72679,338.23941 z M 156.11122,203.68676 L 168.49282,180.70327 L 141.55603,180.70327 L 114.61922,180.70327 L 127.2538,203.70511 C 134.20283,216.35611 140.75265,226.69865 141.80899,226.68854 C 142.86535,226.67845 149.30133,216.32764 156.11122,203.68676 z M 413.47379,203.68676 L 425.85541,180.70327 L 398.91861,180.70327 L 371.98185,180.70327 L 384.61637,203.70511 C 391.5654,216.35611 398.11524,226.69865 399.1716,226.68854 C 400.22794,226.67845 406.6639,216.32764 413.47379,203.68676 z M 295.45834,136.03638 C 295.45834,132.9127 272.2758,92.354922 270.49032,92.354922 C 268.70482,92.354922 245.52231,132.9127 245.52231,136.03638 C 245.52231,137.36371 256.7579,138.4497 270.49032,138.4497 C 284.22273,138.4497 295.45834,137.36371 295.45834,136.03638 z"
     id="path6812"
     sodipodi:nodetypes="cccssssscccscccscccscccsccssssccscccccccccccccssccccsccccccccccsccccccsccsssc" />
</svg>

<svg xmlns="http://www.w3.org/2000/svg" viewBox="0 0 580 580"><path d="m66.28 1.768c-41.34 0-64.57 21.371-64.57 65.04v450.12c0 40.844 20.895 62.23 62.19 62.23h452.02c41.31 0 62.23-20.315 62.23-62.23v-450.12c0-42.601-20.922-65.04-63.52-65.04-.004 0-448.5-.143-448.35 0z" fill="#111" stroke="#eee" stroke-width="3.408"/><g fill="#fff"><path d="m269.18 505.89l-36.492-63.31-71.796-.033c-44.744-.02-72.71-1.513-74.22-3.961-1.335-2.16 13.447-31.528 32.85-65.26 24.06-41.829 34.46-63.48 32.705-68.09-1.415-3.719-17.16-31.981-34.997-62.804-17.834-30.823-32.425-58.05-32.425-60.5 0-3.227 20.401-4.458 73.944-4.462l73.944-.005 36.39-63.38c20.01-34.856 37.615-63.38 39.11-63.38 4.104 0 14.351 15.892 47.678 73.944l30.32 52.817h74.02c56.743 0 73.978 1.121 73.85 4.802-.092 2.641-16.226 32.405-35.853 66.14l-35.684 61.34 35.852 62.11c19.719 34.16 35.853 64.03 35.853 66.38 0 2.983-22.294 4.269-74.02 4.269h-74.02l-30.32 52.817c-33.16 57.767-43.588 73.961-47.577 73.911-1.441-.018-19.04-28.525-39.11-63.35m53.5-37.92c6.493-11.349 11.806-21.72 11.806-23.05 0-1.327-11.236-2.413-24.968-2.413-13.732 0-24.968 1.086-24.968 2.413 0 3.124 23.18 43.681 24.968 43.681.746 0 6.669-9.285 13.162-20.634m-127.29-90.72c-6.949-12.651-13.499-23-14.555-23-1.056 0-7.606 10.351-14.555 23l-12.635 23h27.19 27.19l-12.635-23m180.71-2.927c8.289-14.261 19.951-34.728 25.917-45.48l10.846-19.554-24.884-43.826-24.884-43.827h-53.41-53.41l-24.275 41.803c-13.352 22.992-24.275 43.624-24.275 45.85 0 3.98 39.826 76.78 47.14 86.16 2.66 3.414 18.541 4.802 54.958 4.802h51.22l15.07-25.928m76.65 2.927c-6.949-12.651-13.499-23-14.555-23-1.056 0-7.606 10.351-14.555 23l-12.635 23h27.19 27.19l-12.635-23m-257.62-134.55l12.382-22.983h-26.937-26.937l12.635 23c6.949 12.651 13.499 22.994 14.555 22.983 1.056-.001 7.492-10.361 14.302-23m257.36 0l12.382-22.983h-26.937-26.937l12.635 23c6.949 12.651 13.499 22.994 14.555 22.983 1.056-.001 7.492-10.361 14.302-23m-118.02-67.65c0-3.124-23.18-43.681-24.968-43.681-1.786 0-24.968 40.558-24.968 43.681 0 1.327 11.236 2.413 24.968 2.413 13.732 0 24.968-1.086 24.968-2.413" opacity=".25"/><path d="m230.16 466.88l-36.492-63.31-71.796-.033c-44.744-.02-72.71-1.513-74.22-3.961-1.335-2.16 13.447-31.528 32.85-65.26 24.06-41.829 34.46-63.48 32.705-68.09-1.415-3.719-17.16-31.981-34.997-62.804-17.834-30.823-32.425-58.05-32.425-60.5 0-3.227 20.401-4.458 73.944-4.462l73.944-.005 36.39-63.38c20.01-34.856 37.615-63.38 39.11-63.38 4.104 0 14.351 15.892 47.678 73.944l30.32 52.817h74.02c56.743 0 73.978 1.121 73.85 4.802-.092 2.641-16.226 32.405-35.853 66.14l-35.684 61.34 35.852 62.11c19.719 34.16 35.853 64.03 35.853 66.38 0 2.983-22.294 4.269-74.02 4.269h-74.02l-30.32 52.817c-33.16 57.767-43.588 73.961-47.577 73.911-1.441-.018-19.04-28.525-39.11-63.35m53.5-37.92c6.493-11.349 11.806-21.72 11.806-23.05 0-1.327-11.236-2.413-24.968-2.413-13.732 0-24.968 1.086-24.968 2.413 0 3.124 23.18 43.681 24.968 43.681.746 0 6.669-9.285 13.162-20.634m-127.29-90.72c-6.949-12.651-13.499-23-14.555-23-1.056 0-7.606 10.351-14.555 23l-12.635 23h27.19 27.19l-12.635-23m180.71-2.927c8.289-14.261 19.951-34.728 25.917-45.48l10.846-19.554-24.884-43.827-24.884-43.827h-53.41-53.41l-24.275 41.803c-13.352 22.992-24.275 43.624-24.275 45.85 0 3.98 39.826 76.78 47.14 86.16 2.66 3.414 18.541 4.802 54.958 4.802h51.22l15.07-25.928m76.65 2.927c-6.949-12.651-13.499-23-14.555-23-1.056 0-7.606 10.351-14.555 23l-12.635 23h27.19 27.19l-12.635-23m-257.62-134.55l12.382-22.983h-26.937-26.937l12.635 23c6.949 12.651 13.499 22.994 14.555 22.983 1.056-.001 7.492-10.361 14.302-23m257.36 0l12.382-22.983h-26.937-26.937l12.635 23c6.949 12.651 13.499 22.994 14.555 22.983 1.056-.001 7.492-10.361 14.302-23m-118.02-67.65c0-3.124-23.18-43.681-24.968-43.681-1.786 0-24.968 40.558-24.968 43.681 0 1.327 11.236 2.413 24.968 2.413 13.732 0 24.968-1.086 24.968-2.413"/></g></svg>
